X: 36811
T: Shetland Rose
R: reel
M: 4/4
K: Amajor
d2|cA (3AAA BA F2-|FEFG AGAB|cd B4 d2|
cA (3AAA BA F2-|FEFG AGAc|BG A4:|
|:e2|f2dc def2 -|fefg a2 AB|Bcc2-cdBd|
c2 FE FG A2-|ABcd (3efe dc|dc B4 e2|
f2 dc def2-|fefg a2ga|bae2-efed|
cA (3AAA BAF2-|FEFG AGAc|BG A4:|

